X: 2069
T: Blow Down the Trees
R: reel
C: Rick Gagne
N: 1997 on whistle
M: 4/4
Q: 1/4=175
K: Em
Bd | "Em"edBe dBeB | "G"GABG "D"AFDF | "Em"Eeed efgf | "Bm"edBA F2GA |
"Em"BG~G2 FGeB | "D"AF~F2 EFdA |"Em"BGAF GFEB |1 "D"AFDF "Em"E2 :|\
[2 "D"AFDF "Em"E2GA ||
"Em"Bg~g2 fgef | "C"g2bg fgeg | "D"f2df afdf | "Em"gfeg "Bm"fedc | 
"Em"Bg~g2 fgef | "C"g2bg fgeg | "D"f2df afdf |1 "Am"gefd e2dc :|\
[2 "Am"gefd e2 ||
